public/icons/bathroom-icon.svg

<svg width="22" height="22" viewBox="0 0 22 22" fill="none" xmlns="http://www.w3.org/2000/svg">
<g clip-path="url(#clip0_122_2010)">
<path d="M1.26946 14.2616H11.11V16.0697H17.2615V14.2655H19.7054C19.8637 16.4158 19.8761 18.3304 17.6707 19.7897C17.6437 19.8075 17.6221 19.8318 17.5623 19.885C17.8335 20.1103 18.1009 20.3329 18.3655 20.5529C18.0082 20.8945 17.7212 21.169 17.3922 21.4842C17.1019 21.1848 16.7879 20.8373 16.4458 20.5207C16.3453 20.4275 16.1673 20.3894 16.0215 20.3802C15.7831 20.3657 15.5414 20.4045 15.301 20.4052C12.1057 20.4071 8.91048 20.4065 5.71457 20.4065C5.56154 20.4065 5.398 20.436 5.25679 20.3933C4.83054 20.2653 4.55994 20.4629 4.30642 20.7684C4.09034 21.0284 3.84405 21.2629 3.61877 21.5007C3.31468 21.1808 3.03949 20.8918 2.73474 20.5707C2.939 20.39 3.19843 20.1602 3.49004 19.9014C3.28906 19.7576 3.13866 19.6577 2.99614 19.5474C1.92821 18.7244 1.3509 17.6329 1.27537 16.2924C1.23793 15.6284 1.2688 14.9604 1.2688 14.2616H1.26946Z" fill="white"/>
<path d="M1.27554 9.28709C1.27029 9.16821 1.26109 9.06116 1.26109 8.9541C1.26044 7.21363 1.25847 5.47381 1.26109 3.73333C1.26372 1.82078 2.59108 0.486191 4.50101 0.499984C5.14203 0.504581 5.80275 0.491446 6.41882 0.636595C7.5117 0.894711 8.20001 1.65264 8.53235 2.72057C8.59671 2.92811 8.68012 3.0286 8.90803 3.09034C10.194 3.43909 11.0964 4.641 11.1128 5.98216C11.1155 6.19824 11.1128 6.41432 11.1128 6.64879H5.02578C4.73548 5.11389 5.56959 3.52973 7.31335 3.03517C7.15573 2.35014 6.48121 1.77217 5.7732 1.74722C5.23792 1.72817 4.70067 1.7262 4.16539 1.74722C3.24261 1.78334 2.50044 2.63059 2.4965 3.64663C2.48994 5.39762 2.49453 7.14926 2.49453 8.90025C2.49453 9.01978 2.49453 9.13932 2.49453 9.28644H1.27423L1.27554 9.28709Z" fill="white"/>
<path d="M11.0931 13.0327C10.9644 13.0327 10.8678 13.0327 10.7713 13.0327C7.64366 13.0327 4.5154 13.0334 1.38779 13.0321C0.714591 13.0321 0.230541 12.7135 0.0604342 12.1697C-0.195711 11.3514 0.384229 10.5632 1.26826 10.5514C2.20877 10.5389 3.14929 10.5481 4.0898 10.5481C6.29922 10.5481 8.50799 10.5481 10.7174 10.5481C10.8356 10.5481 10.9538 10.5481 11.0931 10.5481V13.0321V13.0327Z" fill="white"/>
<path d="M16.0237 14.8711H12.3634C12.3575 14.7555 12.3477 14.6504 12.3477 14.5453C12.3464 13.2771 12.3464 12.0082 12.3477 10.7399C12.3483 9.82242 12.8494 9.31801 13.763 9.31407C14.1019 9.31275 14.4408 9.30553 14.7797 9.31604C15.5409 9.34034 16.0381 9.85197 16.0401 10.6152C16.044 11.9386 16.0414 13.2613 16.0401 14.5848C16.0401 14.6708 16.0309 14.7562 16.0237 14.8711Z" fill="white"/>
<path d="M17.2832 13.0209V10.5482C17.8782 10.5482 18.4648 10.5462 19.0506 10.5488C19.356 10.5501 19.668 10.5252 19.9668 10.5744C20.619 10.6821 21.0433 11.2161 21.0164 11.8394C20.9901 12.4509 20.5389 12.9756 19.8985 13.0091C19.0394 13.0544 18.1764 13.0203 17.2839 13.0203L17.2832 13.0209Z" fill="white"/>
</g>
<defs>
<clipPath id="clip0_122_2010">
<rect width="21.0171" height="21" fill="white" transform="translate(0 0.5)"/>
</clipPath>
</defs>
</svg>

<svg xmlns="http://www.w3.org/2000/svg" width="22" height="22" fill="none"><g fill="#fff" clip-path="url(#a)"><path d="M1.27 14.262h9.84v1.808h6.152v-1.805h2.443c.159 2.15.171 4.065-2.034 5.525-.027.018-.049.042-.109.095l.803.668-.973.931c-.29-.3-.604-.647-.946-.963-.1-.094-.279-.132-.425-.14-.238-.015-.48.023-.72.024q-4.792.002-9.586.002c-.153 0-.317.029-.458-.014-.426-.128-.697.07-.95.375-.217.26-.463.495-.688.733l-.884-.93.755-.67c-.2-.143-.351-.243-.494-.354-1.068-.823-1.645-1.914-1.72-3.255-.038-.664-.007-1.332-.007-2.03M1.276 9.287c-.006-.119-.015-.226-.015-.333 0-1.74-.003-3.48 0-5.22C1.264 1.82 2.591.485 4.501.5c.641.005 1.302-.009 1.918.137C7.512.895 8.2 1.653 8.532 2.72c.065.207.148.308.376.37 1.286.348 2.188 1.55 2.205 2.891.003.216 0 .432 0 .667H5.026c-.29-1.535.544-3.12 2.287-3.614-.157-.685-.832-1.263-1.54-1.288a22 22 0 0 0-1.608 0c-.922.036-1.665.884-1.668 1.9-.007 1.75-.002 3.502-.002 5.253v.386h-1.22zM11.093 13.033H1.388c-.673 0-1.157-.32-1.328-.863-.256-.819.324-1.607 1.208-1.619.94-.012 1.881-.003 2.822-.003h7.003z"/><path d="M16.024 14.871h-3.66c-.007-.116-.016-.22-.016-.326q-.003-1.902 0-3.805c0-.918.501-1.422 1.415-1.426.339-.001.678-.008 1.017.002.76.024 1.258.536 1.26 1.3.004 1.323.001 2.645 0 3.969 0 .086-.01.171-.016.286M17.283 13.02v-2.472q.89-.002 1.768 0c.305.002.617-.023.916.026.652.108 1.076.642 1.05 1.265-.027.612-.478 1.137-1.119 1.17-.859.045-1.722.011-2.614.011"/></g><defs><clipPath id="a"><path fill="#fff" d="M0 .5h21.017v21H0z"/></clipPath></defs></svg>
